X:1
T:Gartenlieder, Op.3
T:Im Herbste
T:Gartenlieder, Op.3
T:Fanny (Mendelssohn) Hensel
T:Ludwig Uhland
T:3. Im Herbste
T:OpenScore(CC0)
T:OpenScore(CC0)
T:OpenScore(CC0)
T:OpenScore(CC0)
C:Fanny (Mendelssohn) Hensel
Z:Ludwig Uhland
Z:OpenScore(CC0)
%%score [ 1 2 3 4 ]
L:1/8
Q:1/4=130
M:9/8
K:A
V:1 treble nm="Soprano"
V:2 treble nm="Alto"
V:3 treble-8 nm="Tenor"
V:4 bass nm="Bass"
V:1
!mf!"^Allegro ma non troppo" cd f | e3- e2 A{c} AG A | c3 B3!<(! Bc B!<)! | e3 c3!<(! Bc B!<)! | %4
w: Seid * ge-|grüsst * mit Früh- * lings-|won- ne, blau- * er|Him- mel, gold- * ne|
 e3- e2!>(! c B2 A!>)! | (B2 A G2) A G2 A | !fermata!c3 !fermata!B3!f! e2 e | e3- e2 B E2 A | %8
w: Son- * ne, blau- er|Him- * * mel, gold- ne|Son- ne drü- ben|auch * aus Gar- ten-|
 A3 G3 f2 e | (e3 ^d2) c B2 A | A3 G3 e2 e | e3- e2 B G2 A | c3 B3 e2 e | e3- e2 G B2 A | %14
w: hal- len hör ich|fro- * he Sai- ten|schal- len, drü- ben|auch * ans Gar- ten-|hal- len hör ich|fro- * he Sai- ten|
 !fermata!A3 !fermata!G3 |[K:C]!p! c2 ^G | (^G3 A2) c e2 d | c3 B3 e2 B | (B3 c2) e g2 f | %19
w: schal- len.|Ah- nest|du * o See- le|wie- der, san- fte|sü- * sse Früh- lings-|
 ^d3 e3 e2 =d | (d2 c B2) A G2 A | A3 G3!>(! e2 d!>)! | (c2 B A2) G ^F2 G | G3 ^F3 F2 c | %24
w: lie- der, sich um-|her * * die fal- ben|Bäu- me, sich um-|her * * die fal- ben|Bäu- me, ah- nest|
 (c3"^cresc." B2) A ^G2 d | (d3 c2) B ^A2 e |!mf!"^dim." (^d2 g ^f2) d e2 ^A | ^A3 B3 z3 | %28
w: du * o See- le|wie- * der san- fte|sü- * * sse Früh- lings-|lie- der|
!p! B6 B3 | e6 (d2 c) | c6 (B2 A) | A3 ^G3 c2 G | ^G3- G2 A{B} AG A | %33
w: sich um-|her die *|fal- ben *|Bäu- me, ach es|wa- * ren hol- * de|
 !fermata!c3 !fermata!B3 B^c B |[K:A] e3 c3 Bc B | e3- e2 c B2 A | (B2 A!<(! G2 A) G2 A!<)! | %37
w: Träu- me ach * es|wa- ren hol- * de|Träu- * me hol- de|hol- * * * de *|
 (c6 B3) | A6 z3 | z9 | z6 A2 e | (e3 d2) c d2 =F | A6 =F3 | !fermata!E6 |] %44
w: Träu- *|me,||ach es|wa- * ren hol- de|Träu- *|me.|
V:2
!mf! A2 A | A3- A2 E ^D2 D | ^D3 E3!<(! E2 E!<)! | E3 E3!<(! E2 E!<)! | E3 E3 z3 | z3 ^D3 D3 | %6
w: Seid ge-|grüsst * mit Früh- lings-|won- ne, blau- er|Him- mel, gold- ne|Son- ne,|gold- ne|
 !fermata!^D3 !fermata!E3!f! EF A | A3 G3 GA c | c3 B3 F2 ^A | (^A3 B2) =A G2 F | ^D3 E3 z3 | %11
w: Son- ne drü- * ben|auch aus Gar- * ten-|hal- len hör ich|fro- * he Sai- ten|schal- len,|
 z3 z3 E2 F | (A3 G3) E2 F | A3 G3 D2 C | !fermata!D3 !fermata!D3 |[K:C]!p! C2 D | D3 C3 A2 A | %17
w: drü- ben|auch * hör ich|fro- he Sai- ten|schal- len.|Ah- nest|du * See- le|
 G3 G3 B2 ^G | ^G3 A3 =G2 B | B3 c3 z2 z | z4 z2 E2 E | E6 z3 | z6 E2 E | ^C6 ^F2 F | %24
w: wie- der, san- fte|sü- sse Früh- lings-|lie- der,|sich um-|her|sich um-|her ah- nest|
 ^F3"^cresc." G3 ^G2 G | ^G3 A3 ^A2 A |!mf!"^dim." B6- B2 G | G3 ^F3 z3 |!p! G6 =F3 | E6 E3 | %30
w: du o See- le|wie- der san- fte|sü- * sse|Lie- der|sich um-|her die|
 D6 D3 | E3 E3 C2 D | D3- D2 ^D D2 D | !fermata!^D3 !fermata!E3 E2 E |[K:A] E3 E3 E2 E | E3 E3 z3 | %36
w: fal- ben|Bäu- me, ach es|wa- * ren hol- de|Träu- me ach es|wa- ren hol- de|Träu- me|
 z3!<(! D3 D3!<)! | D6- D3 | C6!p! E2 =G | (=G3 =F2) E F2 D | (=F3 E3) =G3 | =F6- F2 D | =F6 D3 | %43
w: hol- de|Träu- *|me, ach es|wa- * ren hol- de|Träu- * me|hol- * de|Träu- *|
 !fermata!C6 |] %44
w: me.|
V:3
!mf! eB d | c3- c2 c A2 A | A3 G3!<(! GA G!<)! | c3 A3!<(! GA G!<)! | c3 A3 z3 | z3 A3 A3 | %6
w: Seid * ge-|grüsst * mit Früh- lings-|won- ne, blau- * er|Him- mel, gold- * ne|Son- ne,|gold- ne|
 !fermata!A3 !fermata!G3!f! GA c | c3 B3 Bc e | e3 d3 d2 c | (c3 B2) ^d e2 B | B3 B3 z3 | %11
w: Son- ne drü- * ben|auch aus Gar- * ten-|hal- len hör ich|fro- * he Sai- ten|schal- len,|
 z3 z3 e2 e | e3- e2 B G2 A | c3 B3 e2 e | !fermata!e6 |[K:C]!p! A2 B | B3 A3 c2 d | e3 d3 e2 d | %18
w: drü- ben|auch * aus Gar- ten-|hal- len drü- ben|auch|Ah- nest|du * See- le|wie- der, san- fte|
 d3 c3 d2 g | g3 g3 z2 z | z4 z2 c2 c | B6 z3 | z6 e2 e | e6 _e2 e | _e3"^cresc." d3 d2 =f | %25
w: sü- sse Früh- lings-|lie- der,|sich um-|her|sich um-|her ah- nest|du o See- le|
 =f3 e3 e2 g |!mf!"^dim." (^f2 e ^d2) f g2 e | e3 ^d3 z3 |!p! e6 =d3 | c6 G3 | A6 (^G2 A) | %31
w: wie- der san- fte|sü- * * sse Früh- lings-|lie- der|sich um-|her die|fal- ben *|
 c3 B3 A2 B | B3- B2 c B2 A | !fermata!A3 !fermata!^G3 GA G |[K:A] c3 A3 GA G | c3 A3 z3 | %36
w: Bäu- me, ach es|wa- * ren hol- de|Träu- me ach * es|wa- ren hol- * de|Träu- me|
 z3!<(! A3 A3!<)! | A3 G6 | A6!p! c2 e | (e3 d2) c d2 B | d3 c6 | d6 d3 | d3 A6- | !fermata!A6 |] %44
w: hol- de|Träu- *|me, ach es|wa- * ren hol- de|Träu- me|hol- de|Träu- *|me.|
V:4
!mf! A,2 A, | A,3- A,2 A, F,2 F, | E,3 E,3!<(! D,2 D,!<)! | C,3 C,3!<(! D,2 D,!<)! | C,3 C,3 z3 | %5
w: |||||
 z3 F,3 B,,3 | !fermata!E,3 !fermata!E,3!f! E,2 E, | E,6 E,2 E, | E,6 F,3 | B,,6 (C,2 ^D,) | %10
w: |* * drü- ben|auch, drü- ben|auch aus|Gar- ten- *|
 E,3 E,3 z3 | z9 | z6 E,2 E, | E,3- E,2 B,, G,,2 A,, | !fermata!B,,3 !fermata!E,3 | %15
w: hal- len||hör ich|fro- * he Sai- ten|schal- len.|
[K:C]!p! E,2 E, | F,6 ^F,2 F, | G,3 G,3 ^G,2 E, | A,3- A,2 A, B,2 G, | C3 C3 z2 z | z4 z2 C2 C | %21
w: Ah- nest|du, See- le|wie- der, san- fte|sü- * sse Früh- lings-|lie- der,||
 B,6 z3 | z6 B,2 B, | ^A,6 =A,2 A, | (G,3-"^cresc." G,2 F,) E,3 | (A,3- A,2 G,) ^F,3 | %26
w: ||* ah- nest|du * * o|See- * * le|
!mf!"^dim." B,3- B,3- B,2 B, | B,3 B,3 z3 |!p! G,6 G,3 | C,6 C,3 | F,6 F,3 | E,3 E,3 E,2 E, | %32
w: sü- * * sse|Lie- der|||||
 =F,3- F,2 F, F,2 F, | !fermata!E,3 !fermata!E,3 D,2 D, |[K:A] C,3 C,3 D,2 D, | C,3 C,3 z3 | %36
w: ||||
 z3!<(! F,3 =F,3!<)! | E,6- E,3 | A,,6-!p! A,,3 | A,6 A,3 | A,6- A,3- | A,6 A,3 | A,,6- A,,3 | %43
w: |||hol- de|hol- *|* de|Träu- *|
 !fermata!A,,6 |] %44
w: me.|

